X:1
T:Asleep in Jesus, LM
T:Asleep in Jesus, LM
T:David Duffle Wood, 1895
T:Public Domain Courtesy of the Cyber Hymnal™
C:David Duffle Wood, 1895
Z:Public Domain
Z:Courtesy of the Cyber Hymnal™
%%score ( 1 2 ) ( 3 4 )
L:1/8
Q:1/4=85
M:3/4
K:Db
V:1 treble 
V:2 treble 
V:3 bass 
V:4 bass 
V:1
 [DF][DF]>[DE] | [DG]2 [DF]2 [CB]>[CA] | [DA]3 [Fd] [Ec][DB] | A3 [DF] [DF][DF]>[DE] x/ | %4
 [CE]3 [EG] [EG][DF] | [EB]3 [FA] [Gd][Gc] | [Ff]3 [Fe] [Fd][=EB] | [FA][DF] [CF]3 [CE] x | D3 |] %9
V:2
 x3 | x6 | x6 | (E2 A,) x9/2 | x6 | x6 | x6 | x7 | D3 |] %9
V:3
 [D,A,][D,A,]>[D,G,] | [D,A,]2 [D,A,]2 [E,G,]>[E,G,] | [F,A,]3 [F,A,] [G,=A,][G,B,] | %3
 ([G,C]2 [F,D])[D,A,] [B,,A,]=G,3/2 z/ G,/ | [A,,A,]3 [C,A,] [C,A,][D,A,] | [G,C]3 [F,D] [E,E]A, | %6
 [D,A,]3 [F,=A,] B,[=G,D] | [A,D]A, A,3 z G, | [D,F,]3 |] %9
V:4
 x3 | x6 | x6 | x5 B,,E, x/ | x6 | x5 A, | x4 B, x | x A, A,,2 A,,2 x | x3 |] %9

